Adwaita++-Light/panel/24/xfce4-whiskermenu.svg

<svg height="24" width="24" xmlns="http://www.w3.org/2000/svg">
  <path d="m10.304417 5.0003447c-.230746.00494-.4126398.0746138-.4765628.0742188-1.4770871.2052346-.5341324 1.7538652.0917969 3.6738281.0534399.4914691-1.4623612.2861931-1.7988281-.2285157-1.134785-2.74638-1.4375073-2.4396683-1.7539063-2.5195312-.303068-.061806-1.3554172.4671249-1.3320313 1.578125.004.3191549.2059804 2.123008.2089844 2.5898443-1.330373 2.259637-1.8725651 4.496298-.2050781 6.808593 1.1948705 1.565703 4.0672336 2.055165 5.9511723 2.021485 4.009316.0016 5.958765-2.177086 8.255859-3.955078 1.754507-1.434871-.04494-3.242043-.46875-3.494141-3.635092-2.3510803-6.691215-1.8615133-6.740235-2.2343753-.02571-.4309688-.0097-1.6290585-.07226-2.0546874-.246729-1.980671-1.152525-2.2716224-1.660161-2.2597656zm7.595703 0c-.744634.115666-1.110105 4.333154-.777344 4.970703 1.142277-.717973.923403-3.9026456.777344-4.970703zm2.9375.9785156c-2.357948 3.0996934-1.799057 2.5203743-2.388672 5.0078127.224955.3078 3.275786-4.6403782 2.388672-5.0078127zm-8.837891 5.0214847a1 1 0 0 1 1 1 1 1 0 0 1 -1 1 1 1 0 0 1 -1-1 1 1 0 0 1 1-1z" fill="#444"/>
</svg>

<svg xmlns="http://www.w3.org/2000/svg" width="24" height="24" version="1.1">
 <defs>
  <style id="current-color-scheme" type="text/css">
   .ColorScheme-Text { color:#444444; } .ColorScheme-Highlight { color:#4285f4; }
  </style>
 </defs>
 <path style="fill:currentColor" class="ColorScheme-Text" d="M 10.304417,5.0003447 C 10.073671,5.0052847 9.8917772,5.0749585 9.8278542,5.0745635 8.3507671,5.2797981 9.2937218,6.8284287 9.9196511,8.7483916 9.973091,9.2398607 8.4572899,9.0345847 8.120823,8.5198759 6.986038,5.7734959 6.6833157,6.0802076 6.3669167,6.0003447 6.0638487,5.9385387 5.0114995,6.4674696 5.0348854,7.5784697 c 0.004,0.3191549 0.2059804,2.123008 0.2089844,2.5898443 -1.330373,2.259637 -1.8725651,4.496298 -0.2050781,6.808593 1.1948705,1.565703 4.0672336,2.055165 5.9511723,2.021485 4.009316,0.0016 5.958765,-2.177086 8.255859,-3.955078 1.754507,-1.434871 -0.04494,-3.242043 -0.46875,-3.494141 C 15.141981,9.1980927 12.085858,9.6876597 12.036838,9.3147977 12.011128,8.8838289 12.027138,7.6857392 11.964578,7.2601103 11.717849,5.2794393 10.812053,4.9884879 10.304417,5.0003447 Z m 7.595703,0 c -0.744634,0.115666 -1.110105,4.333154 -0.777344,4.970703 1.142277,-0.717973 0.923403,-3.9026456 0.777344,-4.970703 z m 2.9375,0.9785156 c -2.357948,3.0996934 -1.799057,2.5203743 -2.388672,5.0078127 0.224955,0.3078 3.275786,-4.6403782 2.388672,-5.0078127 z m -8.837891,5.0214847 a 1,1 0 0 1 1,1 1,1 0 0 1 -1,1 1,1 0 0 1 -1,-1 1,1 0 0 1 1,-1 z"/>
</svg>
